X: 11
T: Willie Coleman's
C: Willie Coleman
Z: UPipes & harp
S: https://thesession.org/tunes/476#setting50468
R: jig
M: 6/8
L: 1/8
K: Gmaj
BAG AGE|GED GBd|edB dgb|age dBA|
BGG AGE|GED GBd|edB dBA|AGF {A}G3|
{a}BAG AGE|{A}GED GDB|edB dgd|age dBA|
BGG AGE|GED GBd|edB dBA|AGF ~G3||
|:~g3 edB|dgb age|g3 edB|GBd ~e2 d|
g3 edB|dgb age|dB/c/d gdB|AGF {A}G3:|

